COLOR/action 16/16/format-text-direction-vertical-lr.svg

<svg height="16" viewBox="0 0 16 16" width="16" xmlns="http://www.w3.org/2000/svg"><g transform="matrix(1.0454545 0 0 1.0648148 -.545455 -8.861111)"><path d="m8.5923923 9.2608697c-.3183865.7155283-.6283068 1.4513113-.9284986 2.2065903-.2910958.745342-.5911873 1.535054-.9004756 2.369837-.3001924.834784-.6101122 1.724719-.9284992 2.668818-.318386.944099-.654059 1.972148-1.008831 3.08519h2.2100884c.1000639-.357763.2105469-.724738.3288043-1.102377.1273548-.37764.2497792-.75592.3680367-1.13356h3.6841037l.354959 1.13356c.127354.377639.23995.744614.340014 1.102377h2.279212c-.354772-1.113042-.690446-2.141091-1.008832-3.08519s-.632287-1.834034-.941576-2.668818c-.300192-.834783-.60215-1.624495-.902344-2.369837-.300193-.755279-.604264-1.491062-.913553-2.2065903zm.9677311 2.3404903c.05458.149068.1276126.352416.2185798.610801.090965.258385.1956001.557221.3138588.895109.127354.337888.25961.709597.39606 1.117052.13645.407454.278534.834928.424083 1.282133h-2.6883493c.1455481-.447205.2857635-.874679.4222146-1.282133.1455474-.407455.2778024-.779164.3960598-1.117052.1182587-.337888.2228923-.636724.3138587-.895109.0909658-.258385.1581487-.461733.2036346-.610801z" fill="#1a7fd4" stroke-width=".846263"/><path d="m-10.188244 31.164998v1.773913h12.814345v-1.773913z" fill="#e95420" stroke-width="1.191941" transform="matrix(0 -1.02602402797 -1.07843142521 0 37.00061792514 11.95531281606)"/><g fill="#c43ac4" stroke-width="1.010213" transform="matrix(0 .92963558712 .80118174365 0 -8.16859517115 22.70826157619)"><path d="m-2.3426671 15.622451v4.040853l3.03064061-2.020426z"/><path d="m-2.3426671 24.714372v4.040854l3.03064061-2.020427z"/><path d="m-2.3426671 20.168411v4.040855l3.03064061-2.020428z"/></g><g fill="#e95420" stroke-width="1.191941" transform="matrix(0 -1.02602402797 1.07843142521 0 -20.65279016594 11.95531281606)"><path d="m-8.357623 32.938911-2.745931-1.500204 2.745931-1.501936v.251189l-2.288276 1.250747 2.288276 1.250747zm0-3.378057-2.745931-1.500204 2.745931-1.500204v.249457l-2.288276 1.250747 2.288276 1.250747zm0-3.376325-2.745931-1.501936 2.745931-1.500204v.249457l-2.288276 1.250747 2.288276 1.250747zm-1.3729656-3.889096h-.4576554v-1.773913h.4576554z" fill="#000" opacity=".2"/><path d="m2.6261015 22.295433h-.4576552v-1.773913h.4576552zm-10.9837245 10.643478-.4576552-.249457v-2.501494l.4576552-.251189zm0-3.378057-.4576552-.249457v-2.501494l.4576552-.249457zm0-3.376325-.4576552-.251189v-2.501494l.4576552-.249457z" fill="#fff" opacity=".3"/></g><g stroke-width=".846263"><path d="m9.5601234 11.131794c-.045486.149068-.1126688.352417-.2036346.610802-.090966.258385-.1956.557221-.3138587.895109-.1182574.337888-.2505124.709596-.3960598 1.117051-.1364511.407454-.2766665.834929-.4222146 1.282134h.1550611c.089887-.274194.1806891-.554378.2671535-.812568.1455474-.407455.2778024-.779164.3960598-1.117052.1182587-.337888.2228923-.636724.3138587-.895109.090966-.258385.1581487-.461733.2036346-.610801.05458.149068.1276126.352416.2185798.610801.090967.258385.1956001.557221.3138588.895109.127354.337888.25961.709597.39606 1.117052.08648.258252.178563.538304.269022.812568h.155061c-.145549-.447205-.287633-.87468-.424083-1.282134-.13645-.407455-.268706-.779163-.39606-1.117051-.1182587-.337888-.2228888-.636724-.3138588-.895109-.090966-.258385-.1639995-.461734-.2185798-.610802zm-1.8271061 5.754009c-.1182575.37764-.240682.75592-.3680367 1.13356-.1182575.377638-.2287404.744615-.3288043 1.102377h-2.0568954c-.05311.165437-.09921.300197-.153193.469565h2.2100884c.1000639-.357763.2105469-.724738.3288043-1.102377.1273548-.37764.2497792-.75592.3680367-1.13356h3.6841037l.354959 1.13356c.127354.377639.23995.744614.340014 1.102377h2.279212c-.053985-.169368-.100087-.304128-.153193-.469565h-2.126019c-.100064-.357762-.21266-.724739-.340014-1.102377l-.354959-1.13356z" opacity=".2"/><path d="m8.5923923 9.2608697c-.3183865.7155283-.6283068 1.4513113-.9284986 2.2065903-.2910958.745342-.5911873 1.535054-.9004756 2.369837-.3001924.834784-.6101122 1.724719-.9284992 2.668818-.318386.944099-.654059 1.972148-1.008831 3.08519h.153193c.295895-.921764.5857-1.815187.855638-2.615624.318387-.9441.6283068-1.834035.9284992-2.668818.3092884-.834784.6093799-1.624495.9004756-2.369837.3001918-.75528.6101121-1.491062.9284986-2.206591h2.0326087c.309289.715529.61336 1.451311.913553 2.206591.300194.745342.602151 1.535053.902344 2.369837.309289.834783.62319 1.724718.941576 2.668818.269938.800437.559744 1.69386.855639 2.615624h.153193c-.354772-1.113042-.690446-2.141091-1.008832-3.08519-.318385-.944099-.632288-1.834034-.941576-2.668818-.300192-.834783-.60215-1.624495-.902344-2.369837-.300193-.755279-.604264-1.491062-.913553-2.2065903zm-.2129755 6.2455853c-.051965.158516-.1017419.305739-.1550611.469565h2.6883493c-.0533-.163758-.1028-.311113-.155061-.469565z" fill="#fff" opacity=".3"/></g></g></svg>

<?xml version="1.0" encoding="UTF-8" standalone="no"?>
<svg
   xmlns:dc="http://purl.org/dc/elements/1.1/"
   xmlns:cc="http://creativecommons.org/ns#"
   xmlns:rdf="http://www.w3.org/1999/02/22-rdf-syntax-ns#"
   xmlns:svg="http://www.w3.org/2000/svg"
   xmlns="http://www.w3.org/2000/svg"
   xmlns:sodipodi="http://sodipodi.sourceforge.net/DTD/sodipodi-0.dtd"
   xmlns:inkscape="http://www.inkscape.org/namespaces/inkscape"
   viewBox="0 0 16 16"
   version="1.1"
   id="svg26"
   sodipodi:docname="1.svg"
   inkscape:version="0.92.4 (5da689c313, 2019-01-14)"
   width="16"
   height="16">
  <metadata
     id="metadata32">
    <rdf:RDF>
      <cc:Work
         rdf:about="">
        <dc:format>image/svg+xml</dc:format>
        <dc:type
           rdf:resource="http://purl.org/dc/dcmitype/StillImage" />
        <dc:title></dc:title>
      </cc:Work>
    </rdf:RDF>
  </metadata>
  <defs
     id="defs30" />
  <sodipodi:namedview
     pagecolor="#ffffff"
     bordercolor="#666666"
     borderopacity="1"
     objecttolerance="10"
     gridtolerance="10"
     guidetolerance="10"
     inkscape:pageopacity="0"
     inkscape:pageshadow="2"
     inkscape:window-width="1920"
     inkscape:window-height="1016"
     id="namedview28"
     showgrid="true"
     inkscape:zoom="43.560137"
     inkscape:cx="12"
     inkscape:cy="6.7224349"
     inkscape:window-x="0"
     inkscape:window-y="27"
     inkscape:window-maximized="1"
     inkscape:current-layer="g868">
    <inkscape:grid
       type="xygrid"
       id="grid820" />
  </sodipodi:namedview>
  <g
     transform="matrix(1.0454545,0,0,1.0648148,-0.545455,-8.861111)"
     id="g24">
    <path
       style="fill:#1a7fd4;stroke-width:0.84626257"
       d="M 8.5923923,9.2608697 C 8.2740058,9.976398 7.9640855,10.712181 7.6638937,11.46746 c -0.2910958,0.745342 -0.5911873,1.535054 -0.9004756,2.369837 -0.3001924,0.834784 -0.6101122,1.724719 -0.9284992,2.668818 -0.318386,0.944099 -0.654059,1.972148 -1.008831,3.08519 h 2.2100884 c 0.1000639,-0.357763 0.2105469,-0.724738 0.3288043,-1.102377 0.1273548,-0.37764 0.2497792,-0.75592 0.3680367,-1.13356 h 3.6841037 l 0.354959,1.13356 c 0.127354,0.377639 0.23995,0.744614 0.340014,1.102377 h 2.279212 C 14.036534,18.478263 13.70086,17.450214 13.382474,16.506115 13.064088,15.562016 12.750187,14.672081 12.440898,13.837297 12.140706,13.002514 11.838748,12.212802 11.538554,11.46746 11.238361,10.712181 10.93429,9.976398 10.625001,9.2608697 Z M 9.5601234,11.60136 c 0.05458,0.149068 0.1276126,0.352416 0.2185798,0.610801 0.090965,0.258385 0.1956001,0.557221 0.3138588,0.895109 0.127354,0.337888 0.25961,0.709597 0.39606,1.117052 0.13645,0.407454 0.278534,0.834928 0.424083,1.282133 H 8.2243557 C 8.3699038,15.05925 8.5101192,14.631776 8.6465703,14.224322 8.7921177,13.816867 8.9243727,13.445158 9.0426301,13.10727 9.1608888,12.769382 9.2655224,12.470546 9.3564888,12.212161 9.4474546,11.953776 9.5146375,11.750428 9.5601234,11.60136 Z"
       id="path2"
       inkscape:connector-curvature="0"
       sodipodi:nodetypes="cccsccccccccscccccscccccccc" />
    <g
       transform="matrix(1.0450245,0,0,1.0588235,14.150618,-13.72526)"
       id="g22">
      <g
         transform="matrix(0,-0.96902272,-1.0319676,0,21.865516,24.253875)"
         id="g12"
         style="fill:#e95420">
        <path
           d="m -10.188244,31.164998 v 1.773913 H 2.626101 v -1.773913 z"
           id="path4"
           inkscape:connector-curvature="0"
           style="stroke-width:1.19194055" />
      </g>
      <g
         id="g20"
         style="fill:#c43ac4;stroke-width:1.01021302"
         transform="matrix(0,0.87798919,0.76666312,0,-21.357598,34.409438)">
        <path
           d="m -2.3426671,15.622451 v 4.040853 l 3.03064061,-2.020426 z"
           id="path14"
           inkscape:connector-curvature="0" />
        <path
           d="m -2.3426671,24.714372 v 4.040854 l 3.03064061,-2.020427 z"
           id="path16"
           inkscape:connector-curvature="0" />
        <path
           d="m -2.3426671,20.168411 v 4.040855 l 3.03064061,-2.020428 z"
           id="path18"
           inkscape:connector-curvature="0" />
      </g>
      <g
         style="fill:#e95420"
         id="g868"
         transform="matrix(0,-0.96902272,1.0319676,0,-33.303916,24.253875)">
        <path
           style="opacity:0.2;fill:#000000;fill-opacity:1;stroke-width:1.19194055"
           d="m -8.357623,32.938911 -2.745931,-1.500204 2.745931,-1.501936 v 0.251189 l -2.288276,1.250747 2.288276,1.250747 z m 0,-3.378057 -2.745931,-1.500204 2.745931,-1.500204 v 0.249457 l -2.288276,1.250747 2.288276,1.250747 z m 0,-3.376325 -2.745931,-1.501936 2.745931,-1.500204 v 0.249457 l -2.288276,1.250747 2.288276,1.250747 z M -9.7305886,22.295433 H -10.188244 V 20.52152 h 0.4576554 z"
           id="path866"
           inkscape:connector-curvature="0" />
        <path
           style="opacity:0.3;fill:#ffffff;fill-opacity:1;stroke-width:1.19194055"
           d="M 2.6261015,22.295433 H 2.1684463 V 20.52152 H 2.6261015 Z M -8.357623,32.938911 -8.8152782,32.689454 V 30.18796 l 0.4576552,-0.251189 z m 0,-3.378057 -0.4576552,-0.249457 v -2.501494 l 0.4576552,-0.249457 z m 0,-3.376325 -0.4576552,-0.251189 v -2.501494 l 0.4576552,-0.249457 z"
           id="path881"
           inkscape:connector-curvature="0" />
      </g>
      <g
         transform="matrix(0,0.87798919,0.76666312,0,-21.357598,34.409438)"
         style="fill:#c43ac4;stroke-width:1.01021302"
         id="g876" />
    </g>
    <g
       id="g834"
       transform="matrix(-1.0450245,0,0,1.0588235,2.1972099,-13.72526)">
      <g
         style="fill:#e95420"
         id="g824"
         transform="translate(-1.938128,1.187604)" />
      <g
         transform="matrix(0.90605635,0,0,0.74291398,0.06463023,10.102986)"
         style="fill:#c43ac4;stroke-width:1.01021302"
         id="g832" />
    </g>
    <path
       style="opacity:0.2;fill:#000000;fill-opacity:1;stroke-width:0.84626257"
       d="m 9.5601234,11.131794 c -0.045486,0.149068 -0.1126688,0.352417 -0.2036346,0.610802 -0.090966,0.258385 -0.1956,0.557221 -0.3138587,0.895109 -0.1182574,0.337888 -0.2505124,0.709596 -0.3960598,1.117051 -0.1364511,0.407454 -0.2766665,0.834929 -0.4222146,1.282134 h 0.1550611 c 0.089887,-0.274194 0.1806891,-0.554378 0.2671535,-0.812568 0.1455474,-0.407455 0.2778024,-0.779164 0.3960598,-1.117052 0.1182587,-0.337888 0.2228923,-0.636724 0.3138587,-0.895109 0.090966,-0.258385 0.1581487,-0.461733 0.2036346,-0.610801 0.05458,0.149068 0.1276126,0.352416 0.2185798,0.610801 0.090967,0.258385 0.1956001,0.557221 0.3138588,0.895109 0.127354,0.337888 0.25961,0.709597 0.39606,1.117052 0.08648,0.258252 0.178563,0.538304 0.269022,0.812568 h 0.155061 C 10.767156,14.589685 10.625072,14.16221 10.488622,13.754756 10.352172,13.347301 10.219916,12.975593 10.092562,12.637705 9.9743033,12.299817 9.8696732,12.000981 9.7787032,11.742596 9.6877372,11.484211 9.6147037,11.280862 9.5601234,11.131794 Z m -1.8271061,5.754009 c -0.1182575,0.37764 -0.240682,0.75592 -0.3680367,1.13356 -0.1182575,0.377638 -0.2287404,0.744615 -0.3288043,1.102377 H 4.9792809 c -0.05311,0.165437 -0.09921,0.300197 -0.153193,0.469565 h 2.2100884 c 0.1000639,-0.357763 0.2105469,-0.724738 0.3288043,-1.102377 0.1273548,-0.37764 0.2497792,-0.75592 0.3680367,-1.13356 h 3.6841037 l 0.354959,1.13356 c 0.127354,0.377639 0.23995,0.744614 0.340014,1.102377 h 2.279212 C 14.337321,19.421937 14.291219,19.287177 14.238113,19.12174 H 12.112094 C 12.01203,18.763978 11.899434,18.397001 11.77208,18.019363 l -0.354959,-1.13356 z"
       id="path837"
       inkscape:connector-curvature="0"
       sodipodi:nodetypes="csccccccccscsccccccccccccccccccccccc" />
    <path
       style="opacity:0.3;fill:#ffffff;fill-opacity:1;stroke-width:0.84626257"
       d="M 8.5923923,9.2608697 C 8.2740058,9.976398 7.9640855,10.712181 7.6638937,11.46746 c -0.2910958,0.745342 -0.5911873,1.535054 -0.9004756,2.369837 -0.3001924,0.834784 -0.6101122,1.724719 -0.9284992,2.668818 -0.318386,0.944099 -0.654059,1.972148 -1.008831,3.08519 h 0.153193 c 0.295895,-0.921764 0.5857,-1.815187 0.855638,-2.615624 0.318387,-0.9441 0.6283068,-1.834035 0.9284992,-2.668818 0.3092884,-0.834784 0.6093799,-1.624495 0.9004756,-2.369837 0.3001918,-0.75528 0.6101121,-1.491062 0.9284986,-2.206591 h 2.0326087 c 0.309289,0.715529 0.61336,1.451311 0.913553,2.206591 0.300194,0.745342 0.602151,1.535053 0.902344,2.369837 0.309289,0.834783 0.62319,1.724718 0.941576,2.668818 0.269938,0.800437 0.559744,1.69386 0.855639,2.615624 h 0.153193 C 14.036534,18.478263 13.70086,17.450214 13.382474,16.506115 13.064089,15.562016 12.750186,14.672081 12.440898,13.837297 12.140706,13.002514 11.838748,12.212802 11.538554,11.46746 11.238361,10.712181 10.93429,9.976398 10.625001,9.2608697 Z M 8.3794168,15.506455 c -0.051965,0.158516 -0.1017419,0.305739 -0.1550611,0.469565 h 2.6883493 c -0.0533,-0.163758 -0.1028,-0.311113 -0.155061,-0.469565 z"
       id="path841"
       inkscape:connector-curvature="0"
       sodipodi:nodetypes="cccsccsccccccsccsccccccccc" />
  </g>
</svg>
